X: 7768
T: Comb Your Hair And Curl It
R: slip jig
M: 9/8
K: Edorian
|:B2E E2F G2A|Bcd e2c d3|B2E E2F G2A|BcB A2G FED:|
|:g2e e2d e2g|f2d d2c d3|g2e e2d e2c|BcB A2G FED:|
|:B2E E2F G2A|B2e ece dBA|B2E E2F G2A|B=cB A2G FED:|
g2e efe e2f|g3 efg afd|g2e efe e2c|d2B ABG FED:|

